X:1
T:Lombard Street, 11.10.11.10
T:Lombard Street, 11.10.11.10
T:Frederick George Russell, 1929
T:Public Domain Courtesy of the Cyber Hymnal (htt
C:Frederick George Russell, 1929
Z:Public Domain
Z:Courtesy of the Cyber Hymnal (htt
%%score ( 1 2 ) ( 3 4 )
L:1/8
M:4/4
K:F
V:1 treble 
V:2 treble 
V:3 bass 
V:4 bass 
V:1
 [A,D]4 [DF]2 [FA]2 | [EA]4 [DG]4 | [CF]3 [B,G] [A,A]2 [B,G]2 | [CF]2 [B,D]2 [A,D]4 | %4
 D4 [DF]2 [DFA]2 | [CGc]4 [EGc]4 | [FA]3 [DG] [DG]2 [DE]2 | [CA]8 | [A,D]4 [DF]2 [EA]2 | %9
 [Dd]4 [Fd]4 | [Gc]3 [Gc] [Fd]2 [Gc]2 | c2 A2 [EA]4 | [DG]4 [GB]2 [DGd]2 | [CF]4 [B,G]4 | %14
 [A,A]3 [B,G] [CF]2 [B,D]2 | [A,D]8 |] %16
V:2
 x8 | x8 | x8 | x8 | D4 x4 | x8 | x8 | x8 | x8 | x8 | x8 | F4 x4 | x8 | x8 | x8 | x8 |] %16
V:3
 [D,F,]4 [D,A,]2 [D,A,]2 | [C,A,]4 [B,,B,]4 | [A,,F,]3 [G,,E,] [F,,F,]2 [G,,E,]2 | F,4 [D,F,]4 | %4
 [F,A,]4 [F,A,]2 [D,A,]2 | [E,G,]4 [C,C]4 | [F,C]3 [B,,G,] [B,,G,]2 [B,,B,]2 | [F,,F,A,]8 | %8
 [D,F,]4 [D,A,]2 [C,A,]2 | [B,,F,B,]4 [D,B,]4 | [E,G,]3 [E,G,] [D,A,]2 [E,G,]2 | A,2 C2 [A,C]4 | %12
 B,4 [B,D]2 [B,,B,]2 | [A,,F,]4 [G,,E,]4 | [F,,F,]3 [G,,E,] [A,,F,]2 [B,,F,]2 | [D,F,]8 |] %16
V:4
 x8 | x8 | x8 | A,,2 B,,2 x4 | x8 | x8 | x8 | x8 | x8 | x8 | x8 | F,4 x4 | B,4 x4 | x8 | x8 | x8 |] %16

